svg/u1f955.svg

<svg viewBox="0 0 128 128" xmlns="http://www.w3.org/2000/svg">
  <path d="M55.46,70.67L4.01,110.71c0,0-1.71,2.41-0.27,4.5c1.45,2.09,6.33,1.55,14.21-1.99 c7.14-3.21,25.54-12.74,34.49-18.7c6.57-4.38,16.59-10.13,22.77-15.92c2.86-2.67,4.47-4.72,5.39-7.91 c2.82-9.79-2.47-13.85-2.47-13.85L55.46,70.67z" fill="#ED6C31"/>
  <path d="M7.09,112.46c5.65-0.99,20.94-10.66,28.73-15.13s34.9-20.88,38.54-27.43 c2.03-3.66,3.01-10.39-0.1-14.65s-9.03-7.58-17.14-3.64c-7.48,3.64-22.23,23.28-29.61,31.48C17.5,94.22,8.59,104.68,4.98,109.23 c-1.23,1.54-1.4,2.34-1.4,2.34S4.91,112.85,7.09,112.46z" fill="#FF8D02"/>
  <path d="M80.8,42.38c-0.26,1.76-2.01,3.37-5.09,6.13c-4.05,3.64-5.71,3.43-6.44,5.3 c-0.45,1.17,0.47,3.67,2.91,6.34c2.18,2.39,4.17,3.16,4.99,3.01c1.99-0.35,3.12-3.01,7.27-6.44c3.08-2.54,4.16-3.43,5.71-3.32 c1.56,0.1,2.89,1.57,4.57,3.32c2.49,2.6,7.36,4.94,12.41,3.25c6.01-2.02,6.25-7.6,6.87-8.22c0.62-0.62,5.23-0.53,7.62-3.34 c2.39-2.8,3.08-9.59,2.04-11.46c-1.04-1.87-49.1-15.24-49.1-15.24s-2.04,5.89-0.52,10.18C76.44,38.64,81.28,39.09,80.8,42.38z" fill="#2F7C31"/>
  <path d="M47.04,68.35c2.14,1.94,4.36,0.42,5.82-1.04c1.31-1.31,4.36-4.26,5.71-5.19 c1.35-0.93,4.05-3.01,5.82-4.36c1.77-1.35,1.57-5.88-2.39-5.19c-2.39,0.42-5.09,2.6-8.1,5.09c-2.38,1.97-5.19,4.99-6.34,6.54 C46.42,65.75,45.9,67.31,47.04,68.35z" fill="#FFA726"/>
  <path d="M37.97,78.24c-1.47-1.47-2.88-0.47-4.88,1.71s-2.24,3.69-1.06,4.82c1.65,1.59,3.41-0.41,4.82-2 C38.26,81.18,39.62,79.89,37.97,78.24z" fill="#FFA726"/>
  <path d="M59.45,63.7c-1.07,0.94-0.99,2.57,0.25,3.97c1.51,1.7,2.96,3.15,4.23,4.23 c1.26,1.07,2.9,0.57,3.47-0.19c0.78-1.04,0.63-2.4-0.5-3.6c-0.96-1.01-3.09-3.41-4.35-4.35C61.72,63.15,60.46,62.82,59.45,63.7z" fill="#ED6C31"/>
  <path d="M41.66,71.72c-1.55,1.35-0.69,3.47,0.44,5.11c1.14,1.64,2.96,3.78,5.05,2.52s0.25-4.73-0.69-6.12 C45.51,71.84,43.61,70.01,41.66,71.72z" fill="#ED6C31"/>
  <path d="M32.1,88.79c-1.39,1.52-0.37,3.27,1.26,4.48c1.7,1.26,3.85,2.02,4.92,0.63 c1.07-1.39-0.32-3.41-1.64-4.35C35.32,88.6,33.43,87.34,32.1,88.79z" fill="#ED6C31"/>
  <path d="M14.85,99.53c-1.67,1.27-0.5,3.66,0.32,4.67s2.33,2.4,3.78,1.14c1.41-1.23,0.6-3.13-0.19-4.48 C17.69,99.03,15.92,98.71,14.85,99.53z" fill="#ED6C31"/>
  <path d="M88.39,16.25c0.76-0.13,8.16-8.86,19.38-2.95c10.83,5.7,5.93,14.89,6.33,15.47s5.17,0.4,7.83,4.39 c2.85,4.28,2,6.65,2,6.65s-1.03,4-5.84,4.95c-3.04,0.6-6.42-0.77-7.37-0.29s-0.72,4.91-6.23,6.62c-3.5,1.09-10.55-0.35-15.15-4.72 c-4.67-4.43-3.08-9.11-5.95-11.37c-3.99-3.14-12.21-7.58-8.24-14.69C79.71,12.14,87.64,16.38,88.39,16.25z" fill="#709921"/>
</svg>

<svg viewBox="0 0 128 128" xmlns="http://www.w3.org/2000/svg">
  <defs/>
  <path d="M55.46,70.67 L4.01,110.71 C4.01,110.71 2.3,113.12 3.74,115.21 C5.19,117.3 10.07,116.76 17.95,113.22 C25.09,110.01 43.49,100.48 52.44,94.52 C59.01,90.14 69.03,84.39 75.21,78.6 C78.07,75.93 79.68,73.88 80.6,70.69 C83.42,60.9 78.13,56.84 78.13,56.84 L55.46,70.67 Z" fill="#ED6C31"/>
  <path d="M7.09,112.46 C12.74,111.47 28.03,101.8 35.82,97.33 C43.61,92.86 70.72,76.45 74.36,69.9 C76.39,66.24 77.37,59.51 74.26,55.25 C71.15,50.99 65.23,47.67 57.12,51.61 C49.64,55.25 34.89,74.89 27.51,83.09 C17.5,94.22 8.59,104.68 4.98,109.23 C3.75,110.77 3.58,111.57 3.58,111.57 C3.58,111.57 4.91,112.85 7.09,112.46 Z" fill="#FF8D02"/>
  <path d="M80.8,42.38 C80.54,44.14 78.79,45.75 75.71,48.51 C71.66,52.15 70,51.94 69.27,53.81 C68.82,54.98 69.74,57.48 72.18,60.15 C74.36,62.54 76.35,63.31 77.17,63.16 C79.16,62.81 80.29,60.15 84.44,56.72 C87.52,54.18 88.6,53.29 90.15,53.4 C91.71,53.5 93.04,54.97 94.72,56.72 C97.21,59.32 102.08,61.66 107.13,59.97 C113.14,57.95 113.38,52.37 114,51.75 C114.62,51.13 119.23,51.22 121.62,48.41 C124.01,45.61 124.7,38.82 123.66,36.95 C122.62,35.08 74.56,21.71 74.56,21.71 C74.56,21.71 72.52,27.6 74.04,31.89 C76.44,38.64 81.28,39.09 80.8,42.38 Z" fill="#2F7C31"/>
  <path d="M47.04,68.35 C49.18,70.29 51.4,68.77 52.86,67.31 C54.17,66 57.22,63.05 58.57,62.12 C59.92,61.19 62.62,59.11 64.39,57.76 C66.16,56.41 65.96,51.88 62,52.57 C59.61,52.99 56.91,55.17 53.9,57.66 C51.52,59.63 48.71,62.65 47.56,64.2 C46.42,65.75 45.9,67.31 47.04,68.35 Z" fill="#FFA726"/>
  <path d="M37.97,78.24 C36.5,76.77 35.09,77.77 33.09,79.95 C31.09,82.13 30.85,83.64 32.03,84.77 C33.68,86.36 35.44,84.36 36.85,82.77 C38.26,81.18 39.62,79.89 37.97,78.24 Z" fill="#FFA726"/>
  <path d="M59.45,63.7 C58.38,64.64 58.46,66.27 59.7,67.67 C61.21,69.37 62.66,70.82 63.93,71.9 C65.19,72.97 66.83,72.47 67.4,71.71 C68.18,70.67 68.03,69.31 66.9,68.11 C65.94,67.1 63.81,64.7 62.55,63.76 C61.72,63.15 60.46,62.82 59.45,63.7 Z" fill="#ED6C31"/>
  <path d="M41.66,71.72 C40.11,73.07 40.97,75.19 42.1,76.83 C43.24,78.47 45.06,80.61 47.15,79.35 C49.24,78.09 47.4,74.62 46.46,73.23 C45.51,71.84 43.61,70.01 41.66,71.72 Z" fill="#ED6C31"/>
  <path d="M32.1,88.79 C30.71,90.31 31.73,92.06 33.36,93.27 C35.06,94.53 37.21,95.29 38.28,93.9 C39.35,92.51 37.96,90.49 36.64,89.55 C35.32,88.6 33.43,87.34 32.1,88.79 Z" fill="#ED6C31"/>
  <path d="M14.85,99.53 C13.18,100.8 14.35,103.19 15.17,104.2 C15.99,105.21 17.5,106.6 18.95,105.34 C20.36,104.11 19.55,102.21 18.76,100.86 C17.69,99.03 15.92,98.71 14.85,99.53 Z" fill="#ED6C31"/>
  <path d="M88.39,16.25 C89.15,16.12 96.55,7.39 107.77,13.3 C118.6,19 113.7,28.19 114.1,28.77 C114.5,29.35 119.27,29.17 121.93,33.16 C124.78,37.44 123.93,39.81 123.93,39.81 C123.93,39.81 122.9,43.81 118.09,44.76 C115.05,45.36 111.67,43.99 110.72,44.47 C109.77,44.95 110,49.38 104.49,51.09 C100.99,52.18 93.94,50.74 89.34,46.37 C84.67,41.94 86.26,37.26 83.39,35 C79.4,31.86 71.18,27.42 75.15,20.31 C79.71,12.14 87.64,16.38 88.39,16.25 Z" fill="#709921"/>
</svg>
